Numix-GalliumOS/scalable/status/weather-overcast-symbolic.svg

<svg width="16" xmlns="http://www.w3.org/2000/svg" viewBox="0 0 16 16" height="16" xmlns:xlink="http://www.w3.org/1999/xlink" style="enable-background:new">
<defs>
<clipPath>
<rect width="477.143" x="-830" y="1580.934" height="208.571" style="fill:#ff0"/>
</clipPath>
<clipPath clipPathUnits="userSpaceOnUse">
<rect width="357.384" x="218.9" y="758.675" height="318.397" style="fill:#fff" transform="rotate(.22918)"/>
</clipPath>
<clipPath>
<rect width="477.143" x="-830" y="1580.934" height="208.571" style="fill:#ff0"/>
</clipPath>
<clipPath clipPathUnits="userSpaceOnUse">
<rect width="301.429" x="0" y="857.541" height="195" style="fill:#fff"/>
</clipPath>
<clipPath>
<rect width="477.143" x="-830" y="1580.934" height="208.571" style="fill:#ff0"/>
</clipPath>
<clipPath>
<rect width="477.143" x="-830" y="1580.934" height="208.571" style="fill:#ff0"/>
</clipPath>
<clipPath>
<rect width="477.143" x="-830" y="1580.934" height="208.571" style="fill:#ff0"/>
</clipPath>
<clipPath clipPathUnits="userSpaceOnUse">
<rect width="357.384" x="218.9" y="758.675" height="318.397" style="fill:#fff" transform="rotate(.22918)"/>
</clipPath>
<clipPath clipPathUnits="userSpaceOnUse">
<rect width="506.461" x="8.208" y=".064" height="37.48" style="fill:#162d50" transform="rotate(20.37582)"/>
</clipPath>
<clipPath clipPathUnits="userSpaceOnUse">
<rect width="357.865" x="294.934" y="780.645" height="240.871" style="fill:#f00" transform="matrix(.99975 -.02255 .02255 .99975 0 0)"/>
</clipPath>
<clipPath clipPathUnits="userSpaceOnUse">
<rect width="506.461" x="8.208" y=".064" height="37.48" style="fill:#162d50" transform="rotate(20.37582)"/>
</clipPath>
<clipPath clipPathUnits="userSpaceOnUse">
<rect width="287.432" x="257.321" y="793.52" height="279.027" style="fill:#fff" transform="rotate(.16206)"/>
</clipPath>
<clipPath clipPathUnits="userSpaceOnUse">
<rect width="79.477" x="276.365" y="977.09" height="30.006" style="fill:#e20a17"/>
</clipPath>
<clipPath clipPathUnits="userSpaceOnUse">
<rect width="350.457" x="221.386" y="804.242" height="235.885" transform="rotate(.6171)"/>
</clipPath>
<clipPath>
<rect width="477.143" x="-830" y="1580.934" height="208.571" style="fill:#ff0"/>
</clipPath>
<clipPath clipPathUnits="userSpaceOnUse">
<rect width="63.987" x="448.118" y="815.74" height="41.394" style="fill:#fff" transform="rotate(27.44968)"/>
</clipPath>
<clipPath clipPathUnits="userSpaceOnUse">
<rect width="301.429" x="0" y="857.541" height="195" style="fill:#fff"/>
</clipPath>
<clipPath clipPathUnits="userSpaceOnUse">
<rect width="301.429" x="0" y=".06" height="195" style="fill:#fff"/>
</clipPath>
<clipPath clipPathUnits="userSpaceOnUse">
<rect width="301.429" x="0" y="857.541" height="195" style="fill:#fff"/>
</clipPath>
<clipPath>
<rect width="477.143" x="-830" y="1580.934" height="208.571" style="fill:#ff0"/>
</clipPath>
<clipPath id="clipPath11535" clipPathUnits="userSpaceOnUse">
<path style="fill:#4a0" d="m 699.2857,672.93231 a 40.714287,40.714287 0 1 1 -81.42858,0 40.714287,40.714287 0 1 1 81.42858,0 z"/>
</clipPath>
<clipPath clipPathUnits="userSpaceOnUse">
<path style="fill:#4a0" d="m 699.2857,672.93231 a 40.714287,40.714287 0 1 1 -81.42858,0 40.714287,40.714287 0 1 1 81.42858,0 z" transform="matrix(4.3233 0 0 4.3233 -2450.68 -2667.55)"/>
</clipPath>
<clipPath clipPathUnits="userSpaceOnUse">
<path style="fill:#4a0;clip-path:url(#clipPath11535)" d="m 699.2857,672.93231 a 40.714287,40.714287 0 1 1 -81.42858,0 40.714287,40.714287 0 1 1 81.42858,0 z" transform="matrix(4.3233 0 0 4.3233 -2450.68 -2667.55)"/>
</clipPath>
<clipPath>
<rect width="477.143" x="-830" y="1580.934" height="208.571" style="fill:#ff0"/>
</clipPath>
<clipPath clipPathUnits="userSpaceOnUse">
<path style="fill:#4a0;clip-path:url(#clipPath11535)" d="m 699.2857,672.93231 a 40.714287,40.714287 0 1 1 -81.42858,0 40.714287,40.714287 0 1 1 81.42858,0 z"/>
</clipPath>
<clipPath>
<rect width="477.143" x="-830" y="1580.934" height="208.571" style="fill:#ff0"/>
</clipPath>
<clipPath>
<rect width="477.143" x="-830" y="1580.934" height="208.571" style="fill:#ff0"/>
</clipPath>
<clipPath clipPathUnits="userSpaceOnUse">
<path style="fill:#4a0;clip-path:url(#clipPath11535)" d="m 699.2857,672.93231 a 40.714287,40.714287 0 1 1 -81.42858,0 40.714287,40.714287 0 1 1 81.42858,0 z" transform="matrix(4.3233 0 0 4.3233 -2450.68 -2667.55)"/>
</clipPath>
<clipPath>
<rect width="477.143" x="-830" y="1580.934" height="208.571" style="fill:#ff0"/>
</clipPath>
<clipPath>
<rect width="477.143" x="-830" y="1580.934" height="208.571" style="fill:#ff0"/>
</clipPath>
</defs>
<path style="fill:#bebebe" d="M 5.100397,2.5000708 C 4.9452172,2.499143 4.7820927,2.5072808 4.6135193,2.5290688 1.9213175,2.8770455 2.0042341,5.1968901 2.0042341,5.1968901 0.9015515,5.3851222 0,6.3517859 0,7.3620782 c 0,1.0102769 1.1523293,1.90518 2.1176817,2.1651883 0.574225,0.1546562 1.3282779,0 1.3282779,0 C 3.6028142,9.80504 3.9225611,10.040784 4.3015405,10.213554 4.5233399,9.8081948 4.855628,9.4684258 5.2800217,9.2807829 5.7495431,8.1528033 6.8721686,7.1663528 8.1587444,7.2460858 9.102027,7.1954465 10.020422,7.6793262 10.616768,8.4060082 c 1.095866,-0.3623366 2.715723,-0.081665 3.185974,1.1454232 0.313372,-0.065224 0.622165,-0.040585 0.912306,0.04833 0.10258,-0.02063 0.189459,-0.045192 0.259982,-0.072495 1.599247,-0.6191511 1.101896,-2.5550769 0.03781,-3.2091183 -1.064075,-0.6540414 -2.45802,-0.1933202 -2.45802,-0.1933202 0,0 -0.0031,-1.3307479 -1.507903,-1.9670349 -1.5048125,-0.6363023 -2.7794555,0.7684485 -2.7794555,0.7684485 0,0 -0.8393493,-2.4117613 -3.1670681,-2.4261708 z M 8.2580112,8.1740239 C 8.1546088,8.1734052 8.0441807,8.1789111 7.9318504,8.1933561 6.1378724,8.4241064 6.192327,9.9622375 6.192327,9.9622375 5.457541,10.087045 4.8593222,10.727681 4.8593222,11.397641 c 0,0.66994 0.7653629,1.262993 1.4086357,1.435403 0.3826422,0.102558 0.8839425,0 0.8839425,0 C 7.3790399,13.233326 8.1280357,13.5 8.6503491,13.5 c 0.851663,0 1.7270119,-0.282371 1.9286029,-0.666956 0,0 3.526965,0.282033 4.258997,0 1.065676,-0.410581 0.732697,-1.692824 0.02364,-2.126523 -0.709061,-0.433703 -1.635531,-0.130492 -1.635531,-0.130492 0,0 -0.0041,-0.8829633 -1.006844,-1.3049121 C 11.216465,8.8491836 10.37097,9.783416 10.37097,9.783416 c 0,0 -0.5618522,-1.5998375 -2.1129537,-1.6093922 z"/>
</svg>

<svg xmlns="http://www.w3.org/2000/svg" viewBox="0 0 16 16" style="enable-background:new">
 <path d="m 5.1 2.5 c -0.155 -0.001 -0.318 0.007 -0.487 0.029 -2.692 0.348 -2.609 2.668 -2.609 2.668 -1.103 0.188 -2 1.155 -2 2.165 c 0 1.01 1.152 1.905 2.118 2.165 0.574 0.155 1.328 0 1.328 0 c 0.157 0.278 0.477 0.514 0.856 0.686 0.222 -0.405 0.554 -0.745 0.978 -0.933 0.47 -1.128 1.592 -2.114 2.879 -2.035 0.943 -0.051 1.862 0.433 2.458 1.16 c 1.096 -0.362 2.716 -0.082 3.186 1.145 0.313 -0.065 0.622 -0.041 0.912 0.048 0.103 -0.021 0.189 -0.045 0.26 -0.072 1.599 -0.619 1.102 -2.555 0.038 -3.209 -1.064 -0.654 -2.458 -0.193 -2.458 -0.193 0 0 -0.003 -1.331 -1.508 -1.967 -1.505 -0.636 -2.779 0.768 -2.779 0.768 0 0 -0.839 -2.412 -3.167 -2.426 z m 3.158 5.674 c -0.103 -0.001 -0.214 0.005 -0.326 0.019 -1.794 0.231 -1.74 1.769 -1.74 1.769 -0.735 0.125 -1.333 0.765 -1.333 1.435 c 0 0.67 0.765 1.263 1.409 1.435 0.383 0.103 0.884 0 0.884 0 c 0.227 0.4 0.976 0.667 1.498 0.667 c 0.852 0 1.727 -0.282 1.929 -0.667 0 0 3.527 0.282 4.259 0 1.066 -0.411 0.733 -1.693 0.024 -2.127 -0.709 -0.434 -1.636 -0.13 -1.636 -0.13 0 0 -0.004 -0.883 -1.01 -1.305 c -1 -0.422 -1.848 0.512 -1.848 0.512 c 0 0 -0.562 -1.6 -2.113 -1.609 z" style="fill:#bebebe"/>
</svg>
